src/icons/svg-colors/home-eco.svg

<svg width="89" height="81" viewBox="0 0 89 81" fill="none" xmlns="http://www.w3.org/2000/svg">
<path d="M3.0522 53.1495C2.52925 53.3271 2.24929 53.895 2.4269 54.418C2.6045 54.9409 3.17241 55.2209 3.69536 55.0433L3.0522 53.1495ZM24.3428 46.9749L24.4717 45.9832L24.2412 45.9532L24.0212 46.028L24.3428 46.9749ZM33.8108 59.0314C33.2587 59.0465 32.8234 59.5063 32.8385 60.0584C32.8537 60.6105 33.3135 61.0458 33.8655 61.0306L33.8108 59.0314ZM3.69536 55.0433L24.6643 47.9217L24.0212 46.028L3.0522 53.1495L3.69536 55.0433ZM24.2139 47.9665L59.789 52.5913L60.0468 50.608L24.4717 45.9832L24.2139 47.9665ZM59.4965 58.3277L33.8108 59.0314L33.8655 61.0306L59.5513 60.3269L59.4965 58.3277ZM62.2592 55.9216C62.0326 57.2813 60.8745 58.2899 59.4965 58.3277L59.5513 60.3269C61.8859 60.263 63.848 58.5541 64.232 56.2504L62.2592 55.9216ZM59.789 52.5913C61.4069 52.8016 62.5274 54.3123 62.2592 55.9216L64.232 56.2504C64.6864 53.5238 62.788 50.9643 60.0468 50.608L59.789 52.5913Z" fill="#A01E25"/>
<path d="M1 74.6698L11.8008 69.4436C12.7395 68.9894 13.8186 68.9197 14.8079 69.2495L45.0789 79.3398C48.1975 80.3794 51.6278 79.8198 54.2543 77.8431L85.5836 54.2654C87.1977 53.0507 87.6149 50.8033 86.5442 49.0901V49.0901C85.4043 47.2664 83.0019 46.712 81.1781 47.8518L54.3032 64.6486C53.3914 65.2185 52.2444 65.2568 51.2966 64.7491L41.7511 59.6354" stroke="#A01E25" stroke-width="2"/>
<path d="M58.7637 51.327L70.3232 46.764C72.4505 45.9243 74.87 46.3669 76.5623 47.9053L78.1501 49.3487" stroke="#A01E25" stroke-width="2"/>
<path d="M14.3949 14.7784C13.8752 14.5913 13.3023 14.8609 13.1153 15.3805C12.9282 15.9002 13.1978 16.4731 13.7174 16.6601L14.3949 14.7784ZM61.3499 17.8833C61.8896 17.766 62.232 17.2334 62.1146 16.6937C61.9973 16.1541 61.4647 15.8117 60.925 15.929L61.3499 17.8833ZM13.7174 16.6601C20.4797 19.0946 39.3185 22.6728 61.3499 17.8833L60.925 15.929C39.2776 20.6349 20.8206 17.0916 14.3949 14.7784L13.7174 16.6601Z" fill="#A01E25"/>
<path d="M52.2115 11.1651C52.7554 11.0691 53.1185 10.5504 53.0225 10.0065C52.9265 9.46263 52.4078 9.09954 51.8639 9.19551L52.2115 11.1651ZM40.5921 19.8535C41.4696 18.5998 43.1333 16.6277 45.2251 14.8612C47.3294 13.084 49.7724 11.5955 52.2115 11.1651L51.8639 9.19551C48.9223 9.71462 46.156 11.4572 43.9347 13.3331C41.7008 15.2197 39.9223 17.3227 38.9536 18.7066L40.5921 19.8535Z" fill="#A01E25"/>
<path d="M49.6981 28.5878C50.2501 28.5688 50.6821 28.1059 50.6631 27.5539C50.644 27.002 50.1811 26.57 49.6292 26.589L49.6981 28.5878ZM76.9629 8.99326L77.9296 9.24915L78.2349 8.0958L77.046 7.99672L76.9629 8.99326ZM42.1465 37.8751L42.2428 38.8704L42.1465 37.8751ZM22.7601 17.6974L21.765 17.5979L21.765 17.5979L22.7601 17.6974ZM38.19 1.08043L38.133 0.0820634L38.19 1.08043ZM61.5329 6.22377L61.9268 5.30463L61.5329 6.22377ZM33.3233 19.6937C34.7762 22.8901 40.0399 28.9209 49.6981 28.5878L49.6292 26.589C40.9297 26.889 36.3287 21.4725 35.144 18.8661L33.3233 19.6937ZM75.9962 8.73737C73.686 17.4647 63.5966 34.7945 42.0502 36.8797L42.2428 38.8704C64.9145 36.6763 75.4921 18.4576 77.9296 9.24915L75.9962 8.73737ZM42.0502 36.8797C36.3426 37.4321 31.5998 34.5919 28.3336 30.5684C25.0447 26.5168 23.3918 21.43 23.7551 17.7969L21.765 17.5979C21.3371 21.8776 23.245 27.4731 26.7809 31.8289C30.3395 36.2127 35.6855 39.505 42.2428 38.8704L42.0502 36.8797ZM23.7551 17.7969C24.0052 15.2956 25.0471 11.4726 27.3361 8.22408C29.6038 5.00578 33.0711 2.37458 38.2471 2.07881L38.133 0.0820634C32.2311 0.419317 28.2471 3.45897 25.7012 7.07208C23.1766 10.655 22.0424 14.8239 21.765 17.5979L23.7551 17.7969ZM38.2471 2.07881C45.0287 1.69128 50.3629 2.79344 54.1761 4.06318C58.077 5.36213 60.1829 6.73318 61.1389 7.14291L61.9268 5.30463C61.3834 5.07176 58.7417 3.4755 54.8079 2.16561C50.7864 0.826511 45.1988 -0.321696 38.133 0.0820634L38.2471 2.07881ZM61.1389 7.14291C64.0638 8.39644 67.3636 9.19676 76.8799 9.98981L77.046 7.99672C67.5715 7.20715 64.5409 6.42501 61.9268 5.30463L61.1389 7.14291Z" fill="#A01E25"/>
</svg>

<svg viewBox="0 0 89 81" fill="none" xmlns="http://www.w3.org/2000/svg"><path d="M3.05 53.15a1 1 0 0 0 .65 1.9l-.65-1.9zm21.3-6.18l.12-.99-.23-.03-.22.08.32.94zm9.46 12.06a1 1 0 1 0 .06 2l-.06-2zM3.7 55.04l20.96-7.12-.64-1.9-20.97 7.13.65 1.9zm20.51-7.07l35.58 4.62.26-1.98-35.58-4.63-.26 1.99zM59.5 58.33l-25.69.7.06 2 25.68-.7-.05-2zm2.76-2.4a2.88 2.88 0 0 1-2.76 2.4l.05 2a4.88 4.88 0 0 0 4.68-4.08l-1.97-.33zm-2.47-3.34a2.88 2.88 0 0 1 2.47 3.33l1.97.33a4.88 4.88 0 0 0-4.18-5.64l-.26 1.98z" fill="#A01E25"/><path d="M1 74.67l10.8-5.23a4 4 0 0 1 3-.2l30.28 10.1a10 10 0 0 0 9.17-1.5l31.33-23.57a3.9 3.9 0 0 0-4.4-6.41L54.3 64.64a3 3 0 0 1-3 .1l-9.55-5.11" stroke="#A01E25" stroke-width="2"/><path d="M58.76 51.33l11.56-4.57a6 6 0 0 1 6.24 1.15l1.59 1.44" stroke="#A01E25" stroke-width="2"/><path d="M14.4 14.78a1 1 0 1 0-.68 1.88l.67-1.88zm46.95 3.1a1 1 0 1 0-.43-1.95l.43 1.95zm-47.63-1.22c6.76 2.43 25.6 6.01 47.63 1.22l-.43-1.95c-21.64 4.7-40.1 1.16-46.53-1.15l-.67 1.88z" fill="#A01E25"/><path d="M52.21 11.17a1 1 0 1 0-.35-1.97l.35 1.97zM40.6 19.85a28.17 28.17 0 0 1 4.64-4.99c2.1-1.78 4.54-3.26 6.98-3.7l-.35-1.96c-2.94.51-5.7 2.26-7.93 4.13a30.16 30.16 0 0 0-4.98 5.38l1.64 1.14zM49.7 28.59a1 1 0 1 0-.07-2l.07 2zm27.26-19.6l.97.26.3-1.15-1.18-.1-.09 1zM42.15 37.88l.1.99-.1-1zM22.76 17.7l-1-.1 1 .1zM38.19 1.08l-.06-1 .06 1zm23.34 5.14l.4-.92-.4.92zM33.33 19.7c1.45 3.2 6.71 9.23 16.37 8.9l-.07-2c-8.7.3-13.3-5.12-14.49-7.72l-1.82.82zM76 8.74c-2.31 8.72-12.4 26.05-33.95 28.14l.2 1.99c22.66-2.2 33.24-20.41 35.68-29.62L76 8.74zM42.05 36.88c-5.7.55-10.45-2.29-13.72-6.31-3.29-4.05-4.94-9.14-4.57-12.77l-2-.2c-.42 4.28 1.48 9.87 5.02 14.23 3.56 4.38 8.9 7.68 15.46 7.04l-.19-1.99zM23.75 17.8c.26-2.5 1.3-6.33 3.59-9.58a13.85 13.85 0 0 1 10.9-6.14l-.1-2c-5.9.34-9.9 3.38-12.44 7a23.21 23.21 0 0 0-3.93 10.52l1.99.2zm14.5-15.72c6.78-.39 12.11.71 15.93 1.98 3.9 1.3 6 2.67 6.96 3.08l.79-1.84c-.55-.23-3.19-1.82-7.12-3.13A44.39 44.39 0 0 0 38.13.08l.12 2zm22.89 5.06C64.06 8.4 67.36 9.2 76.88 10l.17-2c-9.48-.78-12.5-1.56-15.12-2.69l-.8 1.84z" fill="#A01E25"/></svg>
